X:1
T:Title
%%score { 1 | ( 2 3 ) }
L:1/8
Q:1/4=92
M:6/8
K:D
V:1 treble nm="Grand Piano"
V:2 bass 
V:3 bass 
V:1
 [DF]FF FEF | [FA]2 d .A3 | [FA][GB][EG] [DF]2[K:bass] [G,CE] | [F,D]6 | [DF]FF FEF | [FA]2 d .A3 | %6
w: E.~S.~Lorenz * * * * *||||||
 [FA][GB][EG] [DF]2 [CE] | D6 | [FA]2 [Fd] [Fd]2 [Ac] | B2 B .B3 | [^GB]2 [Ge] [Ge]2 [Bd] | %11
w: |||||
 c2 B .A3 | [FA]2 [Fd] [Fd]2 [Ac] | B2 B .B3 | ABG [DF]2 [CE] | D6 |] %16
w: |||||
V:2
 z DD DCD | z2[K:treble] F .F3 | [A,,A,][A,,A,][A,,A,] [A,,A,]2 A,, | D,6 | z[K:treble] DD DCD | %5
 z2[K:treble] F .F3 | [A,,A,][A,,A,][A,,A,] [A,,A,]2 [A,,G,] | [D,F,]6 | %8
 [D,D]2 [D,A,] [D,D]2 [D,D] | [G,DG]2 [G,DG] .[G,DG]3 | [E,E]2 [E,B,] [E,E]2 [E,E] | %11
 [A,EA]2 [A,DE][K:bass] .[A,CE]3 | [D,D]2 [D,A,] [D,D]2 [D,D] | [G,DG]2 [G,DG] .[G,DG]3 | %14
 [A,DF][A,DG][K:bass][A,B,E] [A,,A,]2 [A,,G,] | [D,F,]6 |] %16
V:3
 D,,6 | D,,6[K:treble] | x6 | x6 | D,,6[K:treble] | D,,6[K:treble] | x6 | x6 | x6 | x6 | x6 | %11
 x3[K:bass] x3 | x6 | x6 | x2[K:bass] x4 | x6 |] %16

